assets/img/icons/icn-linkedin-white.svg

<svg width="20" height="20" xmlns="http://www.w3.org/2000/svg"><path d="M18.512 19.013H1.488c-.816 0-1.477-.579-1.477-1.293V2.282C.011 1.569.672.99 1.488.99h17.024c.815 0 1.476.579 1.476 1.292V17.72c0 .714-.661 1.293-1.476 1.293zM3.473 16.044h2.942V7.907H3.473v8.137zM4.964 3.985c-1.007 0-1.664.607-1.664 1.406 0 .78.638 1.406 1.625 1.406h.019c1.026 0 1.664-.626 1.664-1.406-.018-.799-.638-1.406-1.644-1.406zm12.059 7.394c0-2.5-1.452-3.663-3.387-3.663-1.562 0-2.26.789-2.651 1.344V7.907H8.043c.039.764 0 8.137 0 8.137h2.942V11.5c0-.242.019-.486.097-.659.212-.486.697-.989 1.509-.989 1.065 0 1.49.746 1.49 1.84v4.352h2.942v-4.665zm-6.058-2.292l.02-.027v.027h-.02z" fill="#FFF" fill-rule="evenodd"/></svg>

<?xml version="1.0" encoding="UTF-8"?>
<svg width="20px" height="20px" viewBox="0 0 20 20" version="1.1" xmlns="http://www.w3.org/2000/svg" xmlns:xlink="http://www.w3.org/1999/xlink">
    <!-- Generator: Sketch 52 (66869) - http://www.bohemiancoding.com/sketch -->
    <title>Shape</title>
    <desc>Created with Sketch.</desc>
    <g id="wireframe" stroke="none" stroke-width="1" fill="none" fill-rule="evenodd">
        <g id="Desktop-HD-Copy-2" transform="translate(-785.000000, -2551.000000)" fill="#FFFFFF">
            <g id="footer" transform="translate(0.000000, 2391.000000)">
                <g id="line" transform="translate(635.000000, 159.000000)">
                    <g id="Linked-In" transform="translate(150.000000, 1.000000)">
                        <path d="M18.512,19.013 L1.488,19.013 C0.672,19.013 0.011,18.434 0.011,17.72 L0.011,2.282 C0.011,1.569 0.672,0.99 1.488,0.99 L18.512,0.99 C19.327,0.99 19.988,1.569 19.988,2.282 L19.988,17.72 C19.988,18.434 19.327,19.013 18.512,19.013 L18.512,19.013 Z M3.473,16.044 L6.415,16.044 L6.415,7.907 L3.473,7.907 L3.473,16.044 L3.473,16.044 Z M4.964,3.985 C3.957,3.985 3.3,4.592 3.3,5.391 C3.3,6.171 3.938,6.797 4.925,6.797 L4.944,6.797 C5.97,6.797 6.608,6.171 6.608,5.391 C6.59,4.592 5.97,3.985 4.964,3.985 L4.964,3.985 Z M17.023,11.379 C17.023,8.879 15.571,7.716 13.636,7.716 C12.074,7.716 11.376,8.505 10.985,9.06 L10.985,7.907 L8.043,7.907 C8.082,8.671 8.043,16.044 8.043,16.044 L10.985,16.044 L10.985,11.5 C10.985,11.258 11.004,11.014 11.082,10.841 C11.294,10.355 11.779,9.852 12.591,9.852 C13.656,9.852 14.081,10.598 14.081,11.692 L14.081,16.044 L17.023,16.044 L17.023,11.379 L17.023,11.379 Z M10.965,9.087 C10.971,9.078 10.979,9.069 10.985,9.06 L10.985,9.087 L10.965,9.087 L10.965,9.087 Z" id="Shape"></path>
                    </g>
                </g>
            </g>
        </g>
    </g>
</svg>
